packages/kaspersky-hexa-ui-icons/src/iconsSVGs/24/WindowLayout.svg

<svg width="24" height="24" viewBox="0 0 24 24" fill="none" xmlns="http://www.w3.org/2000/svg">
<path fill-rule="evenodd" clip-rule="evenodd" d="M2.01367 7C2.01367 5.34315 3.35682 4 5.01367 4H19.0137C20.6705 4 22.0137 5.34315 22.0137 7V17C22.0137 18.6569 20.6705 20 19.0137 20H5.01367C3.35682 20 2.01367 18.6569 2.01367 17V7ZM4.01368 6.99615L4.01367 7V17C4.01367 17.5523 4.46139 18 5.01367 18H9.20276V6.99615H4.01368ZM19.0137 18H11.2028V13H19.8182C19.8851 13 19.9505 12.9934 20.0137 12.9809V17C20.0137 17.5523 19.566 18 19.0137 18ZM20.0137 11.0191C19.9505 11.0066 19.8851 11 19.8182 11H11.2028V6.99615H20.0137L20.0137 7V11.0191Z" fill="black"/>
</svg>

<svg xmlns="http://www.w3.org/2000/svg" width="24" height="24" fill="none" viewBox="0 0 24 24"><path fill="#000" fill-rule="evenodd" d="M2.0137 7c0-1.6569 1.3431-3 3-3h14c1.6568 0 3 1.3431 3 3v10c0 1.6569-1.3432 3-3 3h-14c-1.6569 0-3-1.3431-3-3zm2-.0038V17c0 .5523.4477 1 1 1h4.189V6.9962zm15 11.0038h-7.8109v-5h8.6154a1 1 0 0 0 .1955-.0191V17c0 .5523-.4477 1-1 1m1-6.9809A1 1 0 0 0 19.8182 11h-8.6154V6.9962h8.8109z"/></svg>
